public/career/Worklife-Balance.svg

<?xml version="1.0" encoding="UTF-8"?> <svg xmlns="http://www.w3.org/2000/svg" id="Layer_3" data-name="Layer 3" viewBox="0 0 90 90"><defs><style> .cls-1 { fill: #3c2cda; } .cls-1, .cls-2 { stroke-width: 0px; } .cls-2 { fill: #ea9d00; } </style></defs><path class="cls-2" d="m40.35,22.08c-.14-.92-.64-1.72-1.38-2.26l-13.05-9.48c-1.23-.92-2.87-.93-4.11-.03l-13.1,9.51c-.75.54-1.24,1.34-1.39,2.26-.14.91.08,1.82.62,2.57.67.94,1.73,1.43,2.8,1.43.5,0,.99-.11,1.46-.32v10.03c0,2.44,1.98,4.42,4.42,4.42h14.43c2.44,0,4.43-1.98,4.43-4.42v-10.03c1.47.68,3.27.25,4.26-1.11.54-.75.76-1.66.61-2.57Zm-14.41,15.7h-4.2v-9.69h4.2v9.69Zm7.1-1.99c0,1.1-.89,1.99-1.99,1.99h-2.68v-10.91c0-.67-.54-1.22-1.21-1.22h-6.64c-.67,0-1.22.55-1.22,1.22v10.91h-2.68c-1.1,0-1.99-.89-1.99-1.99v-11.72l9.21-6.69,9.2,6.69v11.72Zm4.73-12.57c-.34.46-.98.57-1.44.23l-11.78-8.56c-.21-.15-.46-.23-.71-.23s-.51.08-.72.23l-11.78,8.56c-.46.34-1.1.23-1.43-.23-.16-.22-.23-.49-.18-.76.04-.27.19-.51.41-.67l13.09-9.51c.37-.27.87-.26,1.23.01,0,0,0,.01.02.01l13.06,9.49c.22.16.36.4.41.67.04.27-.02.54-.18.76Z"></path><path class="cls-2" d="m80.31,15.37h-7.32v-1.29c0-2.05-1.67-3.71-3.72-3.71h-7.46c-2.05,0-3.72,1.66-3.72,3.71v1.29h-7.31c-1.33,0-2.42,1.08-2.42,2.41v5.7c0,1.21.48,2.29,1.43,3.22v9.96c0,1.96,1.59,3.55,3.55,3.55h24.41c1.95,0,3.55-1.59,3.55-3.55v-9.96c.94-.93,1.42-2.01,1.42-3.22v-5.7c0-1.33-1.08-2.41-2.41-2.41Zm-19.78-1.29c0-.7.57-1.28,1.28-1.28h7.46c.71,0,1.29.58,1.29,1.28v1.29h-10.03v-1.29Zm-2.11,3.72h14.24v2.68c0,.15-.13.28-.28.28h-13.67c-.16,0-.29-.13-.29-.28v-2.68Zm20.44,18.86c.01.62-.5,1.12-1.11,1.12h-24.41c-.62,0-1.12-.5-1.12-1.12v-8.36c2.6,1.13,6.48,1.58,9.23,1.76.33,1.96,2.04,3.45,4.09,3.45s3.76-1.49,4.1-3.45c2.75-.18,6.62-.63,9.22-1.76v8.36Zm-15.04-7.3c0-.96.77-1.73,1.72-1.73s1.73.77,1.73,1.73-.78,1.72-1.73,1.72-1.72-.77-1.72-1.72Zm16.47-5.88c0,.4-.1,1.02-.98,1.74-.18.14-.38.29-.61.43-1.55.99-5.02,1.72-9.37,1.99-.65-1.44-2.1-2.44-3.79-2.44s-3.13,1-3.79,2.44c-4.34-.27-7.81-1-9.37-1.99-.22-.14-.43-.29-.6-.43-.88-.72-.98-1.34-.98-1.74v-5.68h5.19v2.68c0,1.5,1.22,2.71,2.72,2.71h13.67c1.5,0,2.71-1.21,2.71-2.71v-2.68h5.2v5.68Z"></path><path class="cls-1" d="m81.5,45.48H8.5c-.68,0-1.22.54-1.22,1.21v6.99c0,.68.54,1.22,1.22,1.22h34.39l-13.64,23.63c-.22.38-.22.84,0,1.22s.62.61,1.05.61h29.4c.43,0,.83-.23,1.05-.61s.22-.84,0-1.22l-13.64-23.63h34.39c.68,0,1.22-.54,1.22-1.22v-6.99c0-.67-.54-1.21-1.22-1.21Zm-23.91,32.44h-25.18l12.59-21.8,12.59,21.8Zm22.7-25.45H9.71v-4.56h70.58v4.56Z"></path></svg>

<svg width="90" height="90" viewBox="0 0 90 90" fill="none" xmlns="http://www.w3.org/2000/svg">
<path d="M40.35 22.08C40.21 21.16 39.71 20.36 38.97 19.82L25.92 10.34C24.69 9.42001 23.05 9.41001 21.81 10.31L8.71 19.82C7.96 20.36 7.47 21.16 7.32 22.08C7.18 22.99 7.4 23.9 7.94 24.65C8.61 25.59 9.67 26.08 10.74 26.08C11.24 26.08 11.73 25.97 12.2 25.76V35.79C12.2 38.23 14.18 40.21 16.62 40.21H31.05C33.49 40.21 35.48 38.23 35.48 35.79V25.76C36.95 26.44 38.75 26.01 39.74 24.65C40.28 23.9 40.5 22.99 40.35 22.08ZM25.94 37.78H21.74V28.09H25.94V37.78ZM33.04 35.79C33.04 36.89 32.15 37.78 31.05 37.78H28.37V26.87C28.37 26.2 27.83 25.65 27.16 25.65H20.52C19.85 25.65 19.3 26.2 19.3 26.87V37.78H16.62C15.52 37.78 14.63 36.89 14.63 35.79V24.07L23.84 17.38L33.04 24.07V35.79ZM37.77 23.22C37.43 23.68 36.79 23.79 36.33 23.45L24.55 14.89C24.34 14.74 24.09 14.66 23.84 14.66C23.59 14.66 23.33 14.74 23.12 14.89L11.34 23.45C10.88 23.79 10.24 23.68 9.91 23.22C9.75 23 9.68 22.73 9.73 22.46C9.77 22.19 9.92 21.95 10.14 21.79L23.23 12.28C23.6 12.01 24.1 12.02 24.46 12.29C24.46 12.29 24.46 12.3 24.48 12.3L37.54 21.79C37.76 21.95 37.9 22.19 37.95 22.46C37.99 22.73 37.93 23 37.77 23.22Z" fill="#E48747"/>
<path d="M80.31 15.37H72.99V14.08C72.99 12.03 71.32 10.37 69.27 10.37H61.81C59.76 10.37 58.09 12.03 58.09 14.08V15.37H50.78C49.45 15.37 48.36 16.45 48.36 17.78V23.48C48.36 24.69 48.84 25.77 49.79 26.7V36.66C49.79 38.62 51.38 40.21 53.34 40.21H77.75C79.7 40.21 81.3 38.62 81.3 36.66V26.7C82.24 25.77 82.72 24.69 82.72 23.48V17.78C82.72 16.45 81.64 15.37 80.31 15.37ZM60.53 14.08C60.53 13.38 61.1 12.8 61.81 12.8H69.27C69.98 12.8 70.56 13.38 70.56 14.08V15.37H60.53V14.08ZM58.42 17.8H72.66V20.48C72.66 20.63 72.53 20.76 72.38 20.76H58.71C58.55 20.76 58.42 20.63 58.42 20.48V17.8ZM78.86 36.66C78.87 37.28 78.36 37.78 77.75 37.78H53.34C52.72 37.78 52.22 37.28 52.22 36.66V28.3C54.82 29.43 58.7 29.88 61.45 30.06C61.78 32.02 63.49 33.51 65.54 33.51C67.59 33.51 69.3 32.02 69.64 30.06C72.39 29.88 76.26 29.43 78.86 28.3V36.66ZM63.82 29.36C63.82 28.4 64.59 27.63 65.54 27.63C66.49 27.63 67.27 28.4 67.27 29.36C67.27 30.32 66.49 31.08 65.54 31.08C64.59 31.08 63.82 30.31 63.82 29.36ZM80.29 23.48C80.29 23.88 80.19 24.5 79.31 25.22C79.13 25.36 78.93 25.51 78.7 25.65C77.15 26.64 73.68 27.37 69.33 27.64C68.68 26.2 67.23 25.2 65.54 25.2C63.85 25.2 62.41 26.2 61.75 27.64C57.41 27.37 53.94 26.64 52.38 25.65C52.16 25.51 51.95 25.36 51.78 25.22C50.9 24.5 50.8 23.88 50.8 23.48V17.8H55.99V20.48C55.99 21.98 57.21 23.19 58.71 23.19H72.38C73.88 23.19 75.09 21.98 75.09 20.48V17.8H80.29V23.48Z" fill="#E48747"/>
<path d="M81.5 45.48H8.5C7.82 45.48 7.28 46.02 7.28 46.69V53.68C7.28 54.36 7.82 54.9 8.5 54.9H42.89L29.25 78.53C29.03 78.91 29.03 79.37 29.25 79.75C29.47 80.13 29.87 80.36 30.3 80.36H59.7C60.13 80.36 60.53 80.13 60.75 79.75C60.97 79.37 60.97 78.91 60.75 78.53L47.11 54.9H81.5C82.18 54.9 82.72 54.36 82.72 53.68V46.69C82.72 46.02 82.18 45.48 81.5 45.48ZM57.59 77.92H32.41L45 56.12L57.59 77.92ZM80.29 52.47H9.71V47.91H80.29V52.47Z" fill="#E48747"/>
</svg>
